icons/op-bug-24.svg

<svg width="24" height="24" viewBox="0 0 24 24" fill="none" xmlns="http://www.w3.org/2000/svg">
<path d="M10.651 19V17.7137H9.33333V19H10.651ZM9.33333 17.7137V16.4573H7.98431V17.7137H9.33333ZM6.66667 5V6.28632H7.98431V5H6.66667ZM13.349 19H14.6667V17.7137H13.349V19ZM14.6667 17.7137H16.0157V16.4573H14.6667V17.7137ZM18.6824 12.6282V11.3718H17.3333V7.54274H16.0157V6.28632H14.6667V7.54274H9.33333V6.28632H7.98431V7.54274H6.66667V11.3718H5.31765V12.6282H4V16.4573H5.31765V13.9145H6.66667V16.4573H7.98431V15.1709H16.0157V16.4573H17.3333V13.9145H18.6824V16.4573H20V12.6282H18.6824ZM7.98431 12.6282V10.0855H9.33333V12.6282H7.98431ZM14.6667 12.6282V10.0855H16.0157V12.6282H14.6667ZM17.3333 5H16.0157V6.28632H17.3333V5Z" fill="black"/>
</svg>

<svg xmlns="http://www.w3.org/2000/svg" width="24" height="24" viewBox="0 0 24 24"><path d="M10.651 19v-1.286H9.333V19h1.318Zm-1.318-1.286v-1.257H7.984v1.257h1.349ZM6.667 5v1.286h1.317V5H6.667Zm6.682 14h1.318v-1.286h-1.318V19Zm1.318-1.286h1.349v-1.257h-1.349v1.257Zm4.015-5.086v-1.256h-1.349V7.543h-1.317V6.286h-1.349v1.257H9.333V6.286H7.984v1.257H6.667v3.829H5.318v1.256H4v3.829h1.318v-2.542h1.349v2.542h1.317v-1.286h8.032v1.286h1.317v-2.542h1.349v2.542H20v-3.829h-1.318Zm-10.698 0v-2.543h1.349v2.543H7.984Zm6.683 0v-2.543h1.349v2.543h-1.349ZM17.333 5h-1.317v1.286h1.317V5Z"/></svg>
